packages/icons/svg/User_Account_Customer--Pro_64px.svg

<svg xmlns="http://www.w3.org/2000/svg" viewBox="0 0 64 64"><path d="M28 34a14.5 14.5 0 10-14.5-14.5A14.5 14.5 0 0028 34zm0-26a11.5 11.5 0 11-11.5 11.5A11.51 11.51 0 0128 8zM57.5 36.53H49a1.47 1.47 0 00.59-1.18 1.5 1.5 0 00-1.5-1.5h-6.7a1.5 1.5 0 00-1.5 1.5 1.47 1.47 0 00.59 1.18H32a1.5 1.5 0 00-1.5 1.5v1.81A20.81 20.81 0 0128 40a21.67 21.67 0 01-9.78-2.3 2 2 0 00-1.34-.15l-8.4 2A4.48 4.48 0 005 43.88v9.36l.58.45c.29.22 7.09 5.31 22.92 5.31 1 0 2 0 3-.09a1.28 1.28 0 00.5.09h25.5a1.5 1.5 0 001.5-1.5V38a1.5 1.5 0 00-1.5-1.47zm-1.5 3v4.79l-11.26 3.55-11.25-3.55v-4.79zM8 51.69v-7.81a1.5 1.5 0 011.16-1.46l8.05-1.87A24.66 24.66 0 0028 43c.83 0 1.66-.06 2.49-.14v13.08c-.66 0-1.32.06-2 .06C16.31 56 9.87 52.8 8 51.69zM33.49 56v-8.54l3 1v1.7a1.5 1.5 0 103 0v-.75l4.61 1.46a2.08 2.08 0 001.21 0l4.69-1.5v.75a1.5 1.5 0 003 0v-1.7l3-1V56z"/></svg>

<svg xmlns="http://www.w3.org/2000/svg" viewBox="0 0 64 64"><defs></defs><g id="Icon"><path  d="M28,34A14.5,14.5,0,1,0,13.5,19.5,14.5,14.5,0,0,0,28,34ZM28,8A11.5,11.5,0,1,1,16.5,19.5,11.51,11.51,0,0,1,28,8Z"/><path  d="M57.5,36.53H49a1.47,1.47,0,0,0,.59-1.18,1.5,1.5,0,0,0-1.5-1.5H41.39a1.5,1.5,0,0,0-1.5,1.5,1.47,1.47,0,0,0,.59,1.18H32a1.5,1.5,0,0,0-1.5,1.5v1.81A20.81,20.81,0,0,1,28,40a21.67,21.67,0,0,1-9.78-2.3,2,2,0,0,0-1.34-.15l-8.4,2A4.48,4.48,0,0,0,5,43.88v9.36l.58.45C5.87,53.91,12.67,59,28.5,59c1,0,2,0,3-.09A1.28,1.28,0,0,0,32,59H57.5A1.5,1.5,0,0,0,59,57.5V38A1.5,1.5,0,0,0,57.5,36.53Zm-1.5,3v4.79L44.74,47.87,33.49,44.32V39.53ZM8,51.69V43.88a1.5,1.5,0,0,1,1.16-1.46l8.05-1.87A24.66,24.66,0,0,0,28,43c.83,0,1.66-.06,2.49-.14V55.94c-.66,0-1.32.06-2,.06C16.31,56,9.87,52.8,8,51.69ZM33.49,56V47.46l3,1v1.7a1.5,1.5,0,1,0,3,0v-.75l4.61,1.46a2.08,2.08,0,0,0,1.21,0L50,49.37v.75a1.5,1.5,0,0,0,3,0v-1.7l3-1V56Z"/></g></svg>
